img/vector/facebook.svg

<svg width="11" height="12" viewBox="0 0 11 12" fill="none" xmlns="http://www.w3.org/2000/svg">
<path d="M10.963 2.63666C10.963 1.70078 10.1373 0.875 9.20154 0.875H2.10059C1.1648 0.875 0.339111 1.70078 0.339111 2.63666V9.73834C0.339111 10.6742 1.1648 11.5 2.10059 11.5H5.67858V7.48122H4.35748V5.71956H5.67858V5.00389C5.67858 3.79275 6.55932 2.74676 7.66025 2.74676H9.09145V4.50841H7.66025C7.49511 4.50841 7.32997 4.67357 7.32997 5.00389V5.71956H9.09145V7.48122H7.32997V11.5H9.20154C10.1373 11.5 10.963 10.6742 10.963 9.73834V2.63666Z" fill="#8253D8"/>
</svg>

<svg width="11" height="12" fill="none" xmlns="http://www.w3.org/2000/svg"><path d="M10.963 2.637c0-.936-.826-1.762-1.761-1.762H2.1c-.936 0-1.762.826-1.762 1.762v7.101c0 .936.826 1.762 1.762 1.762h3.578V7.481H4.357V5.72H5.68v-.716c0-1.211.88-2.257 1.981-2.257h1.431v1.761h-1.43c-.166 0-.331.166-.331.496v.716h1.761V7.48H7.33V11.5h1.872c.935 0 1.761-.826 1.761-1.762V2.637Z" fill="#8253D8"/></svg>
